resources/light/save.svg

<?xml version="1.0" encoding="UTF-8" standalone="no"?>
<svg
   xmlns:dc="http://purl.org/dc/elements/1.1/"
   xmlns:cc="http://creativecommons.org/ns#"
   xmlns:rdf="http://www.w3.org/1999/02/22-rdf-syntax-ns#"
   xmlns:svg="http://www.w3.org/2000/svg"
   xmlns="http://www.w3.org/2000/svg"
   id="svg4"
   version="1.1"
   width="16"
   height="16"
   viewBox="0 0 16 16">
  <metadata
     id="metadata10">
    <rdf:RDF>
      <cc:Work
         rdf:about="">
        <dc:format>image/svg+xml</dc:format>
        <dc:type
           rdf:resource="http://purl.org/dc/dcmitype/StillImage" />
        <dc:title></dc:title>
      </cc:Work>
    </rdf:RDF>
  </metadata>
  <defs
     id="defs8" />
  <path
     fill="#424242"
     d="m 13.352933,1.146 1.5,1.5 C 14.93234,2.764 14.98411,2.8611852 15,3 v 11.5 c -8.34e-4,0.304089 -0.138432,0.496484 -0.5,0.5 H 1.5 C 1.2051777,14.991063 1.0069216,14.863276 1,14.5 V 1.5 C 1.0087021,1.1066886 1.132322,1.0185329 1.5,1 H 13 c 0.145707,0.014385 0.25299,0.067831 0.352933,0.146 z M 1.9999999,1.9999999 V 14 H 14 V 3.2079999 l -1.207067,-1.208 H 11 V 5.9999998 H 3.9999999 V 1.9999999 Z m 5.9999998,0 v 3 h 1.9999999 v -3 z" />
</svg>

<svg xmlns="http://www.w3.org/2000/svg" width="16" height="16">
   <path fill="#424242" d="M13.353 1.146l1.5 1.5c.08.118.131.215.147.354v11.5c0 .304-.138.496-.5.5h-13c-.295-.009-.493-.137-.5-.5v-13c.009-.393.132-.481.5-.5H13a.65.65 0 01.353.146zM2 2v12h12V3.208L12.793 2H11v4H4V2zm6 0v3h2V2z"/>
</svg>
